!!!COM: Mozart
!!!OTL: 8 Variationen uber das Lied "Ein Weib ist das herrlichste Ding"
!!!Variation: Theme b
**function	**harm	**kern	**kern
*	*	*clefF4	*clefG2
*	*	*k[b-]	*k[b-]
*M3/4	*M3/4	*M3/4	*M3/4
*F:	*F:	*F:	*F:
4T	F:maj	4r	4c
=9	=9	=9	=9
*	*	*	*^
2.T	B-:maj	2F	(4f	2A
.	.	.	4c)	.
.	.	4r	4f	4r
=10	=10	=10	=10	=10
2.T	F:maj	2C	(4g	4e
.	.	.	4c)	4r
*	*	*	*v	*v
.	.	4r	4g
=11	=11	=11	=11
4T	B-:maj	(4F	(4a
4T	G:min	4D	4f)
*	*	*	*^
4T	C:min/b3	4BB-)	4g	4b-
=12	=12	=12	=12	=12
4T	B-:maj/5	2C	(4f	4a
2T	F:maj	.	4e)	4g
*	*	*	*v	*v
.	.	4r	4cc
=13	=13	=13	=13
4T	B-:maj/3	(4A 4f	(4cc
4T	A:dim/b3	4G 4e	4b-
4T	B-:maj	4F) 4f	4a)
=14	=14	=14	=14
2P	E-:maj	4B-	(4f 4dd
.	.	4r	4d) 4b-
4P	C:min/b3	4BB-	4B- 4g
=15	=15	=15	=15
*	*	*^	*
4D	B-:maj/5	(4A	4C	(4f
2D	F:7	4B-)	4r	4g)
.	.	4G	4C	4e'
=16	=16	=16	=16	=16
2T	B-:maj	4A	4F	4f'
*	*	*v	*v	*
.	.	4FF	4r
*-	*-	*-	*-
!!!EMD: Edited in humdrumR 0.7.0.3 on 2024-01-19
